key-remove.svg

<svg fill="currentColor" viewBox="0 0 24 24"><path d="M7.5 3c2 0 3.6 1.2 4.2 3H21v3h-3v3h-3V9h-3.3c-.6 1.8-2.3 3-4.2 3C5 12 3 10 3 7.5S5 3 7.5 3m0 3C6.7 6 6 6.7 6 7.5S6.7 9 7.5 9 9 8.3 9 7.5 8.3 6 7.5 6m7.1 8 1.4 1.4-2.6 2.6 2.6 2.6-1.4 1.4-2.6-2.6L9.4 22 8 20.6l2.6-2.6L8 15.4 9.4 14l2.6 2.6z"/></svg>

<svg  viewBox="0 0 24 24" fill="currentColor"><path  d="M7.5 3C9.5 3 11.1 4.2 11.7 6H21V9H18V12H15V9H11.7C11.1 10.8 9.4 12 7.5 12C5 12 3 10 3 7.5S5 3 7.5 3M7.5 6C6.7 6 6 6.7 6 7.5S6.7 9 7.5 9 9 8.3 9 7.5 8.3 6 7.5 6M14.6 14L16 15.4L13.4 18L16 20.6L14.6 22L12 19.4L9.4 22L8 20.6L10.6 18L8 15.4L9.4 14L12 16.6L14.6 14Z"/></svg>
